apps/www/public/images/product/vector/highlight-openai.svg

<svg width="400" height="211" viewBox="0 0 400 211" fill="none" xmlns="http://www.w3.org/2000/svg">
<g clip-path="url(#clip0_4348_100684)">
<g filter="url(#filter0_f_4348_100684)">
<ellipse cx="199" cy="171.208" rx="84" ry="83.5" fill="#009C77"/>
</g>
<path d="M-18 85.5609C-18 72.3061 -7.25483 61.5609 6 61.5609H87.2604C100.515 61.5609 111.26 72.3061 111.26 85.5609V177.708C111.26 190.963 100.515 201.708 87.2604 201.708H5.99999C-7.25485 201.708 -18 190.963 -18 177.708V85.5609Z" stroke="url(#paint0_radial_4348_100684)" stroke-width="0.5" stroke-dasharray="2.05 3.41"/>
<path d="M286.739 85.5609C286.739 72.3061 297.485 61.5609 310.739 61.5609H392C405.255 61.5609 416 72.3061 416 85.5609V177.708C416 190.963 405.255 201.708 392 201.708H310.739C297.485 201.708 286.739 190.963 286.739 177.708V85.5609Z" stroke="url(#paint1_radial_4348_100684)" stroke-width="0.5" stroke-dasharray="2.05 3.41"/>
<path d="M-18 -64.2921C-18 -77.547 -7.25483 -88.2921 6 -88.2921H87.2604C100.515 -88.2921 111.26 -77.5469 111.26 -64.2921V27.8549C111.26 41.1097 100.515 51.8549 87.2604 51.8549H5.99999C-7.25485 51.8549 -18 41.1097 -18 27.8549V-64.2921Z" stroke="url(#paint2_radial_4348_100684)" stroke-width="0.5" stroke-dasharray="2.05 3.41"/>
<path d="M286.74 -64.2921C286.74 -77.547 297.485 -88.2921 310.74 -88.2921H392C405.255 -88.2921 416 -77.5469 416 -64.2921V27.8549C416 41.1097 405.255 51.8549 392 51.8549H310.74C297.485 51.8549 286.74 41.1097 286.74 27.8549V-64.2921Z" stroke="url(#paint3_radial_4348_100684)" stroke-width="0.5" stroke-dasharray="2.05 3.41"/>
<path d="M123.683 -64.2921C123.683 -77.547 134.428 -88.2921 147.683 -88.2921H250.046C263.3 -88.2921 274.046 -77.5469 274.046 -64.2921V27.8549C274.046 41.1097 263.3 51.8549 250.046 51.8549H147.683C134.428 51.8549 123.683 41.1097 123.683 27.8549V-64.2921Z" stroke="url(#paint4_radial_4348_100684)" stroke-width="0.5" stroke-dasharray="2.05 3.41"/>
<path d="M165.781 61.5941H232.245M198.985 61.8242V2.53577" stroke="url(#paint5_radial_4348_100684)" stroke-width="3"/>
<g filter="url(#filter1_b_4348_100684)">
<rect x="124" y="62.7079" width="150" height="139" rx="24" fill="url(#paint6_radial_4348_100684)"/>
<path d="M237.837 123.907C239.898 117.694 239.19 110.894 235.899 105.238C230.945 96.5827 220.977 92.1317 211.255 94.2027C206.918 89.3189 200.703 86.537 194.181 86.5679C184.244 86.5679 175.414 92.9972 172.337 102.487C165.938 103.816 160.431 107.834 157.201 113.521C152.217 122.176 153.355 133.057 160.031 140.475C157.97 146.688 158.678 153.488 161.969 159.114C166.923 167.799 176.891 172.25 186.643 170.179C190.95 175.063 197.165 177.876 203.687 177.845C213.624 177.845 222.454 171.416 225.531 161.927C231.93 160.597 237.437 156.579 240.636 150.892C245.651 142.237 244.513 131.357 237.837 123.938V123.907ZM230.761 108.236C232.73 111.698 233.468 115.747 232.791 119.673C232.668 119.58 232.422 119.456 232.268 119.363L214.178 108.854C213.255 108.329 212.117 108.329 211.194 108.854L189.997 121.156V112.13L207.502 101.961C215.655 97.2318 226.054 100.045 230.761 108.236ZM189.997 126.998L198.919 121.805L207.841 126.998V137.353L198.919 142.546L189.997 137.353V126.998ZM194.15 92.5335C198.149 92.5335 201.995 93.9245 205.072 96.49C204.949 96.5518 204.702 96.7064 204.518 96.7991L186.428 107.278C185.505 107.803 184.951 108.792 184.951 109.874V134.478L177.167 129.966V109.627C177.167 100.168 184.767 92.5335 194.181 92.5026L194.15 92.5335ZM162.369 116.52C164.369 113.058 167.476 110.4 171.23 109.009V130.615C171.23 131.697 171.784 132.655 172.707 133.211L193.873 145.482L186.059 150.026L168.584 139.888C160.462 135.158 157.662 124.711 162.369 116.52ZM167.138 156.177C165.138 152.746 164.431 148.666 165.107 144.741C165.231 144.833 165.477 144.957 165.63 145.05L183.721 155.559C184.643 156.085 185.782 156.085 186.705 155.559L207.871 143.257V152.283L190.366 162.421C182.213 167.119 171.814 164.337 167.107 156.177H167.138ZM203.718 171.88C199.749 171.88 195.873 170.489 192.827 167.923C192.95 167.861 193.227 167.707 193.381 167.614L211.471 157.135C212.394 156.61 212.978 155.621 212.948 154.539V129.966L220.731 134.478V154.786C220.731 164.245 213.101 171.91 203.718 171.91V171.88ZM235.529 147.893C233.53 151.355 230.392 154.014 226.669 155.374V133.767C226.669 132.686 226.115 131.697 225.192 131.171L203.995 118.869L211.779 114.356L229.284 124.494C237.437 129.224 240.206 139.671 235.499 147.862L235.529 147.893Z" fill="url(#paint7_linear_4348_100684)" fill-opacity="0.5"/>
<path d="M165.295 145.147C164.732 148.903 165.446 152.778 167.354 156.051L167.573 156.427H167.546C172.283 164.177 182.333 166.761 190.241 162.205L165.295 145.147ZM165.295 145.147C165.306 145.153 165.316 145.158 165.326 145.164C165.392 145.2 165.451 145.233 165.501 145.264L165.501 145.264L165.505 145.266L183.595 155.775L183.597 155.776C184.596 156.345 185.829 156.345 186.828 155.776L186.83 155.775L207.621 143.691V152.138L190.241 162.204L165.295 145.147ZM230.544 108.36C232.424 111.666 233.165 115.514 232.603 119.266C232.593 119.26 232.583 119.255 232.573 119.249C232.507 119.213 232.448 119.18 232.397 119.149L232.394 119.147L214.304 108.638L214.302 108.637C213.302 108.068 212.07 108.068 211.07 108.637L211.068 108.638L190.247 120.722V112.274L207.628 102.177C215.66 97.518 225.905 100.288 230.544 108.36ZM177.417 109.627C177.417 100.512 184.577 93.1181 193.566 92.7657L193.548 92.7835H194.15C197.97 92.7835 201.647 94.0712 204.63 96.4525C204.551 96.4984 204.473 96.542 204.406 96.5757L204.399 96.579L204.393 96.5828L186.304 107.06C186.304 107.06 186.304 107.061 186.303 107.061C185.299 107.633 184.701 108.707 184.701 109.874V134.044L177.417 129.822V109.627ZM170.98 109.372V130.615C170.98 131.786 171.581 132.825 172.577 133.425L172.577 133.425L172.581 133.427L193.375 145.483L186.059 149.737L168.71 139.672C160.707 135.012 157.948 124.717 162.586 116.645C164.497 113.336 167.433 110.774 170.98 109.372ZM203.968 171.659V171.63H203.718C199.93 171.63 196.227 170.343 193.272 167.966C193.359 167.917 193.444 167.868 193.508 167.829C193.509 167.829 193.509 167.828 193.51 167.828L211.595 157.353C211.595 157.352 211.595 157.352 211.596 157.352C212.594 156.783 213.23 155.711 213.198 154.535V130.399L220.481 134.622V154.786C220.481 164.024 213.097 171.524 203.968 171.659ZM235.282 147.738L235.187 147.903L235.216 147.933C233.303 151.161 230.38 153.661 226.919 155.012V133.767C226.919 132.601 226.321 131.527 225.317 130.954C225.317 130.954 225.316 130.954 225.316 130.954L204.493 118.869L211.779 114.645L229.159 124.711C237.191 129.37 239.921 139.665 235.282 147.738ZM240.854 151.015C245.899 142.306 244.781 131.367 238.112 123.871C240.149 117.621 239.422 110.796 236.115 105.113C231.132 96.4063 221.129 91.908 211.346 93.9283C206.965 89.0584 200.726 86.287 194.18 86.3179C184.183 86.3181 175.295 92.7554 172.145 102.272C165.736 103.645 160.226 107.69 156.984 113.397C151.971 122.104 153.086 133.038 159.749 140.534C157.721 146.777 158.449 153.592 161.753 159.239C166.736 167.976 176.74 172.474 186.552 170.454C190.903 175.324 197.142 178.126 203.688 178.095C213.686 178.095 222.573 171.657 225.723 162.141C232.132 160.768 237.642 156.723 240.854 151.015ZM190.247 127.142L198.919 122.095L207.591 127.142V137.209L198.919 142.257L190.247 137.209V127.142Z" stroke="url(#paint8_linear_4348_100684)" stroke-width="0.5"/>
<rect x="123.5" y="62.2079" width="151" height="140" rx="24.5" stroke="url(#paint9_linear_4348_100684)"/>
</g>
<g filter="url(#filter2_f_4348_100684)">
<path d="M151.965 61.5941H246.061M198.985 61.8242V2.53577" stroke="url(#paint10_radial_4348_100684)" stroke-width="3"/>
</g>
</g>
<defs>
<filter id="filter0_f_4348_100684" x="-131" y="-158.292" width="660" height="659" filterUnits="userSpaceOnUse" color-interpolation-filters="sRGB">
<feFlood flood-opacity="0" result="BackgroundImageFix"/>
<feBlend mode="normal" in="SourceGraphic" in2="BackgroundImageFix" result="shape"/>
<feGaussianBlur stdDeviation="123" result="effect1_foregroundBlur_4348_100684"/>
</filter>
<filter id="filter1_b_4348_100684" x="109.964" y="48.6716" width="178.072" height="167.072" filterUnits="userSpaceOnUse" color-interpolation-filters="sRGB">
<feFlood flood-opacity="0" result="BackgroundImageFix"/>
<feGaussianBlur in="BackgroundImageFix" stdDeviation="6.51812"/>
<feComposite in2="SourceAlpha" operator="in" result="effect1_backgroundBlur_4348_100684"/>
<feBlend mode="normal" in="SourceGraphic" in2="effect1_backgroundBlur_4348_100684" result="shape"/>
</filter>
<filter id="filter2_f_4348_100684" x="147.965" y="-1.46423" width="102.098" height="68.5583" filterUnits="userSpaceOnUse" color-interpolation-filters="sRGB">
<feFlood flood-opacity="0" result="BackgroundImageFix"/>
<feBlend mode="normal" in="SourceGraphic" in2="BackgroundImageFix" result="shape"/>
<feGaussianBlur stdDeviation="2" result="effect1_foregroundBlur_4348_100684"/>
</filter>
<radialGradient id="paint0_radial_4348_100684" cx="0" cy="0" r="1" gradientUnits="userSpaceOnUse" gradientTransform="translate(198.864 59.1299) rotate(90) scale(123.673 132.688)">
<stop stop-color="#17FDDF"/>
<stop offset="1" stop-color="#10FFE0"/>
</radialGradient>
<radialGradient id="paint1_radial_4348_100684" cx="0" cy="0" r="1" gradientUnits="userSpaceOnUse" gradientTransform="translate(198.864 59.1299) rotate(90) scale(123.673 132.688)">
<stop stop-color="#17FDDF"/>
<stop offset="1" stop-color="#10FFE0"/>
</radialGradient>
<radialGradient id="paint2_radial_4348_100684" cx="0" cy="0" r="1" gradientUnits="userSpaceOnUse" gradientTransform="translate(198.864 59.1299) rotate(90) scale(123.673 132.688)">
<stop stop-color="#17FDDF"/>
<stop offset="1" stop-color="#10FFE0"/>
</radialGradient>
<radialGradient id="paint3_radial_4348_100684" cx="0" cy="0" r="1" gradientUnits="userSpaceOnUse" gradientTransform="translate(198.864 59.1299) rotate(90) scale(123.673 132.688)">
<stop stop-color="#17FDDF"/>
<stop offset="1" stop-color="#10FFE0"/>
</radialGradient>
<radialGradient id="paint4_radial_4348_100684" cx="0" cy="0" r="1" gradientUnits="userSpaceOnUse" gradientTransform="translate(198.864 59.1299) rotate(90) scale(123.673 132.688)">
<stop stop-color="#17FDDF"/>
<stop offset="1" stop-color="#10FFE0"/>
</radialGradient>
<radialGradient id="paint5_radial_4348_100684" cx="0" cy="0" r="1" gradientUnits="userSpaceOnUse" gradientTransform="translate(199.417 50.642) rotate(90) scale(32.4982 32.4982)">
<stop stop-color="#3AFFE5"/>
<stop offset="1" stop-color="#38BBAA" stop-opacity="0"/>
</radialGradient>
<radialGradient id="paint6_radial_4348_100684" cx="0" cy="0" r="1" gradientUnits="userSpaceOnUse" gradientTransform="translate(199 89.0913) rotate(90) scale(112.617 166.125)">
<stop stop-color="#171717"/>
<stop offset="1" stop-color="#171717"/>
</radialGradient>
<linearGradient id="paint7_linear_4348_100684" x1="180.264" y1="106.428" x2="217.049" y2="172.928" gradientUnits="userSpaceOnUse">
<stop stop-color="#89FFCA"/>
<stop offset="1" stop-color="#D0FAE6" stop-opacity="0.6"/>
</linearGradient>
<linearGradient id="paint8_linear_4348_100684" x1="180.264" y1="106.428" x2="217.049" y2="172.928" gradientUnits="userSpaceOnUse">
<stop stop-color="#A5FFD6"/>
<stop offset="1" stop-color="#D0FAE6" stop-opacity="0.81"/>
</linearGradient>
<linearGradient id="paint9_linear_4348_100684" x1="164.284" y1="58.7327" x2="164.284" y2="134.7" gradientUnits="userSpaceOnUse">
<stop stop-color="#00DBA7"/>
<stop offset="1" stop-color="#171717" stop-opacity="0.55"/>
</linearGradient>
<radialGradient id="paint10_radial_4348_100684" cx="0" cy="0" r="1" gradientUnits="userSpaceOnUse" gradientTransform="translate(199.417 50.642) rotate(90) scale(32.4982 32.4982)">
<stop stop-color="#00FFDE"/>
<stop offset="1" stop-color="#38BBAA" stop-opacity="0"/>
</radialGradient>
<clipPath id="clip0_4348_100684">
<rect width="400" height="210" fill="white" transform="translate(0 0.707886)"/>
</clipPath>
</defs>
</svg>

<svg xmlns="http://www.w3.org/2000/svg" width="400" height="211" fill="none" viewBox="0 0 400 211"><g clip-path="url(#a)"><g filter="url(#b)"><ellipse cx="199" cy="171.208" fill="#009c77" rx="84" ry="83.5"/></g><path stroke="url(#c)" stroke-dasharray="2.05 3.41" stroke-width=".5" d="M-18 85.56c0-13.254 10.745-24 24-24h81.26c13.255 0 24 10.746 24 24v92.148c0 13.255-10.745 24-24 24H6c-13.255 0-24-10.745-24-24z"/><path stroke="url(#d)" stroke-dasharray="2.05 3.41" stroke-width=".5" d="M286.739 85.56c0-13.254 10.746-24 24-24H392c13.255 0 24 10.746 24 24v92.148c0 13.255-10.745 24-24 24h-81.261c-13.254 0-24-10.745-24-24z"/><path stroke="url(#e)" stroke-dasharray="2.05 3.41" stroke-width=".5" d="M-18-64.292c0-13.255 10.745-24 24-24h81.26c13.255 0 24 10.745 24 24v92.147c0 13.255-10.745 24-24 24H6c-13.255 0-24-10.745-24-24z"/><path stroke="url(#f)" stroke-dasharray="2.05 3.41" stroke-width=".5" d="M286.74-64.292c0-13.255 10.745-24 24-24H392c13.255 0 24 10.745 24 24v92.147c0 13.255-10.745 24-24 24h-81.26c-13.255 0-24-10.745-24-24z"/><path stroke="url(#g)" stroke-dasharray="2.05 3.41" stroke-width=".5" d="M123.683-64.292c0-13.255 10.745-24 24-24h102.363c13.254 0 24 10.745 24 24v92.147c0 13.255-10.746 24-24 24H147.683c-13.255 0-24-10.745-24-24z"/><path stroke="url(#h)" stroke-width="3" d="M165.781 61.594h66.464m-33.26.23V2.536"/><g filter="url(#i)"><rect width="150" height="139" x="124" y="62.708" fill="url(#j)" rx="24"/><path fill="url(#k)" fill-opacity=".5" d="M237.837 123.907a22.83 22.83 0 0 0-1.938-18.669c-4.954-8.655-14.922-13.106-24.644-11.035a22.69 22.69 0 0 0-17.074-7.635c-9.937 0-18.767 6.43-21.844 15.919a22.71 22.71 0 0 0-15.136 11.034c-4.984 8.655-3.846 19.536 2.83 26.954a22.75 22.75 0 0 0 1.938 18.639 22.9 22.9 0 0 0 24.674 11.065 22.6 22.6 0 0 0 17.044 7.666c9.937 0 18.767-6.429 21.844-15.918a22.6 22.6 0 0 0 15.105-11.035 23.03 23.03 0 0 0-2.799-26.954zm-7.076-15.671c1.969 3.462 2.707 7.511 2.03 11.437-.123-.093-.369-.217-.523-.31l-18.09-10.509a3.02 3.02 0 0 0-2.984 0l-21.197 12.302v-9.026l17.505-10.169c8.153-4.73 18.552-1.916 23.259 6.275m-40.764 18.762 8.922-5.193 8.922 5.193v10.355l-8.922 5.193-8.922-5.193zm4.153-34.464c3.999 0 7.845 1.39 10.922 3.956-.123.062-.37.216-.554.31l-18.09 10.478c-.923.525-1.477 1.514-1.477 2.596v24.604l-7.784-4.512v-20.339c0-9.459 7.6-17.093 17.014-17.124zm-31.781 23.986c2-3.462 5.107-6.12 8.861-7.511v21.606c0 1.082.554 2.04 1.477 2.596l21.166 12.271-7.814 4.544-17.475-10.138c-8.122-4.73-10.922-15.177-6.215-23.368m4.769 39.657c-2-3.431-2.707-7.511-2.031-11.436.124.092.37.216.523.309l18.091 10.509a3.02 3.02 0 0 0 2.984 0l21.166-12.302v9.026l-17.505 10.138c-8.153 4.698-18.552 1.916-23.259-6.244zm36.58 15.703a16.92 16.92 0 0 1-10.891-3.957c.123-.062.4-.216.554-.309l18.09-10.479a2.9 2.9 0 0 0 1.477-2.596v-24.573l7.783 4.512v20.308c0 9.459-7.63 17.124-17.013 17.124zm31.811-23.987c-1.999 3.462-5.137 6.121-8.86 7.481v-21.607c0-1.081-.554-2.07-1.477-2.596l-21.197-12.302 7.784-4.513 17.505 10.138c8.153 4.73 10.922 15.177 6.215 23.368z"/><path stroke="url(#l)" stroke-width=".5" d="M165.295 145.147c-.563 3.756.151 7.631 2.059 10.904l.219.376h-.027c4.737 7.75 14.787 10.334 22.695 5.778zm0 0 .031.017q.1.054.175.1l.004.002 18.09 10.509.002.001a3.27 3.27 0 0 0 3.231 0l.002-.001 20.791-12.084v8.447l-17.38 10.066zm65.249-36.787c1.88 3.306 2.621 7.154 2.059 10.906l-.03-.017a5 5 0 0 1-.176-.1l-.003-.002-18.09-10.509-.002-.001a3.27 3.27 0 0 0-3.232 0l-.002.001-20.821 12.084v-8.448l17.381-10.097c8.032-4.659 18.277-1.889 22.916 6.183Zm-53.127 1.267c0-9.115 7.16-16.509 16.149-16.861l-.018.017h.602c3.82 0 7.497 1.288 10.48 3.67a4 4 0 0 1-.224.123l-.007.003-.006.004-18.089 10.477-.001.001c-1.004.572-1.602 1.646-1.602 2.813v24.17l-7.284-4.222zm-6.437-.255v21.243c0 1.171.601 2.21 1.597 2.81l.004.002 20.794 12.056-7.316 4.254-17.349-10.065c-8.003-4.66-10.762-14.955-6.124-23.027 1.911-3.309 4.847-5.871 8.394-7.273Zm32.988 62.287v-.029h-.25a16.7 16.7 0 0 1-10.446-3.664c.087-.049.172-.098.236-.137l.002-.001 18.085-10.475.001-.001a3.15 3.15 0 0 0 1.602-2.817v-24.136l7.283 4.223v20.164c0 9.238-7.384 16.738-16.513 16.873Zm31.314-23.921-.095.165.029.03c-1.913 3.228-4.836 5.728-8.297 7.079v-21.245c0-1.166-.598-2.24-1.602-2.813h-.001l-20.823-12.085 7.286-4.224 17.38 10.066c8.032 4.659 10.762 14.954 6.123 23.027Zm5.572 3.277a23.28 23.28 0 0 0-2.742-27.144 23.08 23.08 0 0 0-1.997-18.758c-4.983-8.707-14.986-13.205-24.769-11.185a22.94 22.94 0 0 0-17.166-7.61c-9.997 0-18.885 6.437-22.035 15.954a22.97 22.97 0 0 0-15.161 11.125c-5.013 8.707-3.898 19.641 2.765 27.137a23 23 0 0 0 2.004 18.705 23.15 23.15 0 0 0 24.799 11.215 22.86 22.86 0 0 0 17.136 7.641c9.998 0 18.885-6.438 22.035-15.954a22.84 22.84 0 0 0 15.131-11.126Zm-50.607-23.873 8.672-5.047 8.672 5.047v10.067l-8.672 5.048-8.672-5.048z"/><rect width="151" height="140" x="123.5" y="62.208" stroke="url(#m)" rx="24.5"/></g><g filter="url(#n)"><path stroke="url(#o)" stroke-width="3" d="M151.965 61.594h94.096m-47.076.23V2.536"/></g></g><defs><radialGradient id="c" cx="0" cy="0" r="1" gradientTransform="matrix(0 123.673 -132.688 0 198.864 59.13)" gradientUnits="userSpaceOnUse"><stop stop-color="#17fddf"/><stop offset="1" stop-color="#10ffe0"/></radialGradient><radialGradient id="d" cx="0" cy="0" r="1" gradientTransform="matrix(0 123.673 -132.688 0 198.864 59.13)" gradientUnits="userSpaceOnUse"><stop stop-color="#17fddf"/><stop offset="1" stop-color="#10ffe0"/></radialGradient><radialGradient id="e" cx="0" cy="0" r="1" gradientTransform="matrix(0 123.673 -132.688 0 198.864 59.13)" gradientUnits="userSpaceOnUse"><stop stop-color="#17fddf"/><stop offset="1" stop-color="#10ffe0"/></radialGradient><radialGradient id="f" cx="0" cy="0" r="1" gradientTransform="matrix(0 123.673 -132.688 0 198.864 59.13)" gradientUnits="userSpaceOnUse"><stop stop-color="#17fddf"/><stop offset="1" stop-color="#10ffe0"/></radialGradient><radialGradient id="g" cx="0" cy="0" r="1" gradientTransform="matrix(0 123.673 -132.688 0 198.864 59.13)" gradientUnits="userSpaceOnUse"><stop stop-color="#17fddf"/><stop offset="1" stop-color="#10ffe0"/></radialGradient><radialGradient id="h" cx="0" cy="0" r="1" gradientTransform="rotate(90 74.388 125.03)scale(32.4982)" gradientUnits="userSpaceOnUse"><stop stop-color="#3affe5"/><stop offset="1" stop-color="#38bbaa" stop-opacity="0"/></radialGradient><radialGradient id="j" cx="0" cy="0" r="1" gradientTransform="matrix(0 112.617 -166.125 0 199 89.091)" gradientUnits="userSpaceOnUse"><stop stop-color="#171717"/><stop offset="1" stop-color="#171717"/></radialGradient><radialGradient id="o" cx="0" cy="0" r="1" gradientTransform="rotate(90 74.388 125.03)scale(32.4982)" gradientUnits="userSpaceOnUse"><stop stop-color="#00ffde"/><stop offset="1" stop-color="#38bbaa" stop-opacity="0"/></radialGradient><linearGradient id="k" x1="180.264" x2="217.049" y1="106.428" y2="172.928" gradientUnits="userSpaceOnUse"><stop stop-color="#89ffca"/><stop offset="1" stop-color="#d0fae6" stop-opacity=".6"/></linearGradient><linearGradient id="l" x1="180.264" x2="217.049" y1="106.428" y2="172.928" gradientUnits="userSpaceOnUse"><stop stop-color="#a5ffd6"/><stop offset="1" stop-color="#d0fae6" stop-opacity=".81"/></linearGradient><linearGradient id="m" x1="164.284" x2="164.284" y1="58.733" y2="134.7" gradientUnits="userSpaceOnUse"><stop stop-color="#00dba7"/><stop offset="1" stop-color="#171717" stop-opacity=".55"/></linearGradient><filter id="b" width="660" height="659" x="-131" y="-158.292" color-interpolation-filters="sRGB" filterUnits="userSpaceOnUse"><feFlood flood-opacity="0" result="BackgroundImageFix"/><feBlend in="SourceGraphic" in2="BackgroundImageFix" result="shape"/><feGaussianBlur result="effect1_foregroundBlur_4348_100684" stdDeviation="123"/></filter><filter id="i" width="178.072" height="167.072" x="109.964" y="48.672" color-interpolation-filters="sRGB" filterUnits="userSpaceOnUse"><feFlood flood-opacity="0" result="BackgroundImageFix"/><feGaussianBlur in="BackgroundImageFix" stdDeviation="6.518"/><feComposite in2="SourceAlpha" operator="in" result="effect1_backgroundBlur_4348_100684"/><feBlend in="SourceGraphic" in2="effect1_backgroundBlur_4348_100684" result="shape"/></filter><filter id="n" width="102.098" height="68.558" x="147.965" y="-1.464" color-interpolation-filters="sRGB" filterUnits="userSpaceOnUse"><feFlood flood-opacity="0" result="BackgroundImageFix"/><feBlend in="SourceGraphic" in2="BackgroundImageFix" result="shape"/><feGaussianBlur result="effect1_foregroundBlur_4348_100684" stdDeviation="2"/></filter><clipPath id="a"><path fill="#fff" d="M0 .708h400v210H0z"/></clipPath></defs></svg>
